X: 20743
Q: "Moderate."
M: 3/8
L: 1/8
K: G
|:\
(B>c)A | Gz e | (d>e)c | B2z |\
.dz .d | .gz B | .Gz .G | F2z |\
(d>B)G | (e>c)A | (f>e)f | g2z |\
(g>d)B | (e>f)g | B>cA | G3 :|
|:\
d2d | e2d | (dc)B | (BA)z |\
(d>e)=f | e2e | e>^fg | f2z |\
(g>d)B | (e>f)g | (B>c)A | G3 :|


